X:19179
T:Yarrawonga Waltz
M:3/4
L:1/8
S:Harry Schaefer (1879-1954)
R:Waltz
A:Forbes, New South Wales, Australia
N:From the Schaefer manuscripts held in the National Library of Australia
N:Yarrawonga is a town on the Murray River
Z:Transcribed into ABC by John Furlonger
K:G
B6|d2 e2 d2|c6|A6|c6|e2 f2 e2|d6|B6|
g6|f2 g2 f2|e6|d4 c2|B6|B2 A2 ^G2|A6|_B6|
B6|d2 e2 d2|c6|A6|c6|e2 f2 e2|d6|B6|
g6|f2 g2 f2|e6|d4 c2|B6|A2 G2 A2|G6|G4 D2|
B2 B2 B2|d2 c2 B2|c2 e2 e2|e4 d2|a4 g2|d4 BA|B4 D2|
B2 B2 B2|d2 c2 B2|c2 e2 e2|e4 d2|a4 g2|d4 BA|G6||


